svgs/light/tire.svg

<svg xmlns="http://www.w3.org/2000/svg" viewBox="0 0 512 512"><path d="M256 0C114.62 0 0 114.62 0 256s114.62 256 256 256 256-114.62 256-256S397.38 0 256 0zm0 480C132.49 480 32 379.51 32 256S132.49 32 256 32s224 100.49 224 224-100.49 224-224 224zm0-384c-88.37 0-160 71.63-160 160s71.63 160 160 160 160-71.63 160-160S344.37 96 256 96zm0 32c22.34 0 43.04 6.26 61.34 16.36l-37.57 51.71c-7.37-2.93-15.35-4.65-23.77-4.65s-16.39 1.72-23.77 4.65l-37.57-51.71c18.3-10.1 39-16.36 61.34-16.36zM128 256c0-36.74 15.77-69.67 40.64-93.03l37.82 52.06c-9.25 11.18-15.04 25.33-15.04 40.97 0 1.38.32 2.67.41 4.03l-61.4 19.95c-1.49-7.79-2.43-15.77-2.43-23.98zm112 126.38a127.631 127.631 0 0 1-99.45-72.05l61.03-19.83c8.68 13.66 22.32 23.71 38.42 27.84v64.04zm-16-126.4c0-17.67 14.33-32 32-32s32 14.33 32 32-14.33 32-32 32-32-14.32-32-32zm48 126.4v-64.04c16.1-4.13 29.74-14.17 38.42-27.84l61.03 19.83A127.631 127.631 0 0 1 272 382.38zm48.17-122.35c.09-1.36.41-2.65.41-4.03 0-15.64-5.79-29.79-15.04-40.97l37.82-52.06C368.23 186.33 384 219.26 384 256c0 8.21-.94 16.19-2.42 23.97l-61.41-19.94z"/></svg>

<svg xmlns="http://www.w3.org/2000/svg" viewBox="0 0 512 512"><!--! Font Awesome Pro 6.0.0-alpha3 by @fontawesome - https://fontawesome.com License - https://fontawesome.com/license (Commercial License) --><path d="M256 0C114.6 0 0 114.6 0 256s114.6 256 256 256s256-114.6 256-256S397.4 0 256 0zM256 480c-123.5 0-224-100.5-224-224s100.5-224 224-224s224 100.5 224 224S379.5 480 256 480zM256 96C167.6 96 96 167.6 96 256s71.62 160 160 160s160-71.63 160-160S344.4 96 256 96zM256 128c22.38 0 42.99 6.245 61.36 16.37l-37.61 51.76C272.4 193.1 264.4 191.4 256 191.4S239.6 193.1 232.3 196.1l-37.61-51.76C213 134.2 233.6 128 256 128zM128 256c0-36.75 15.75-69.64 40.63-93.01L206.5 215C197.3 226.2 191.4 240.4 191.4 256c0 1.375 .375 2.625 .5 4L130.4 279.1C129 272.2 128 264.2 128 256zM240 382.4c-43.25-5.375-80.72-32.66-99.47-72.04L201.6 290.5C210.3 304.1 223.9 314.2 240 318.4V382.4zM224 256c0-17.75 14.38-32 32-32s32 14.25 32 32c0 17.62-14.38 32-32 32S224 273.6 224 256zM272 382.4V318.4c16.12-4.125 29.75-14.25 38.38-27.88l61.09 19.84C352.7 349.7 315.2 377 272 382.4zM320.1 260c.125-1.375 .5-2.625 .5-4c0-15.62-5.875-29.75-15.12-41l37.87-52.01C368.2 186.4 384 219.2 384 256c0 8.25-1.033 16.23-2.408 23.98L320.1 260z"/></svg>
